X:1
T:Title
%%score ( 1 2 ) { 3 | 4 }
L:1/8
Q:1/4=100
M:4/4
K:Ab
V:1 treble nm="Grand Piano, Soprano"
V:2 treble 
V:3 bass nm="Choir Pad, Have You Heard the Sobbng"
V:4 bass 
V:1
 [CE]>[CE] [CA]>[DG] [EA]>[EB] [Ec]>[EB] | [EA]>[EG] [DF]2 [DA]2 [CE]2 | %2
w: By~Haldor~Lillenas * * * * * * *||
 [CE]2 [CA]>[CA] [EA]>[EA] [=Dc]2 | [=DA]2 [_DB]6 | [DE]>[DE] [CA]>[DG] [EA]>[EB] [Ec]>[EB] | %5
w: |||
 [EA]>[EG] [DF]2 [DA]2 [CE]2 | [Fd]2 [Ec]>[Ec] [CE]>[CA] [Ec]2 | [DB]2 [CA]6 | %8
w: |||
 [_GA]2 [Fd]>[Fd] [Fd]>[Fd] [Fe]2 | z2 d4 z2 | [Ac]2 [GB]>[GB] [FB]>[Ac] [GB]>[EG] | %11
w: |||
 [=DG]>[DA] [EG]2 [DF]2 E2 | [DE]>[DE] [CA]>[DG] [EA]>[EB] [Ec]2 | %13
w: ||
 [=D_c]>[E=c] [Fe]>[Fd] [FA]>[FB] [=Ec]2 | [Fd][Ec] [=DB]>[DF] [DG]>[DA] [Ee]2 | %15
w: ||
 [Ec]2 [DB]4 [CA]2- | [CA]6 z2 |] %17
w: ||
V:2
 x8 | x8 | x8 | x8 | x8 | x8 | x8 | x8 | x8 | [Fd]2 F2 F2 [Ec]2 | x8 | x8 | x8 | x8 | x8 | x8 | %16
 x8 |] %17
V:3
 A,>A, E,>E, A,>G, A,>D | C>A, A,2 A,2 A,2 | A,2 E,>E, A,>A, A,2 | F,2 G,6 | %4
 G,>G, E,>E, A,>G, A,>D | C>A, A,2 A,2 A,2 | A,2 A,>A, A,>A, A,2 | G,2 A,6 | A,2 A,>A, A,>A, A,2 | %9
 A,2 A,4 A,2 | E2 E>E =D>D E>[K:bass]B, | B,>C B,2 A,2 G,2 | G,>G, E,>E, A,>G, A,2 | %13
 A,>A, A,>A, A,>F, G,2 | =A,A, B,>_A, G,>F, A,2 | A,2 G,4 E,2- | E,6 z2 |] %17
V:4
 A,,>A,, A,,>B,, B,,>E, z z/ A,/ | A,>C, D,2 F,2 z2 | z2 A,,>A,, C,>C, B,,2 | B,,2 E,6 | %4
 E,>E, A,,>B,, C,>E, z z/ A,/ | A,>C, D,2 F,2 z2 | D,2 E,>E, E,>E, E,2 | E,2 A,,6 | %8
 z2 D,>D, D,>D, D,2 | D,2 A,,4 A,,2 | A,2 B,>B, B,>B, B,2 | B,,>B,, B,,2 B,,2 E,2 | %12
 E,>E, A,,>B,, C,>E, z2 | z2 D,>D, D,>D, C,2 | F,F, B,,>B,, B,,>B,, C,2 | E,2 E,4 A,,2- | %16
 A,,6 z2 |] %17

